src/svg/trail-sign-sharp.svg

<svg xmlns="http://www.w3.org/2000/svg" class="ionicon" viewBox="0 0 512 512"><title>Trail Sign</title><path d="M502.63 336l-80-80H278v-32h170V64H278V32h-44v32H89.37l-80 80 80 80H234v32H64v160h170v64h44v-64h144.63z" fill="currentColor"/></svg>

<svg xmlns="http://www.w3.org/2000/svg" width="512" height="512" viewBox="0 0 512 512"><title>ionicons-v5-l</title><path d="M502.63,336l-80-80H278V224H448V64H278V32H234V64H89.37l-80,80,80,80H234v32H64V416H234v64h44V416H422.63Z"/></svg>
